X: 36500
T: Serendipity
R: slip jig
M: 9/8
K: Eminor
M:5/8
"A"EBe BA|Bfd B^A|AEE cA|BAG FG|
EBe BA|Bfd B^A|AEE cA|Bag fg|
eBE BA|Bfd B^A|AEE cA|BAG FG|
EBe BA|Bfd B^A|AEE cA|BAG FG|
|:"B"B,DE GF|D^CD GF|EAA cA|Bc^c d^d|
ede gf|d2e fa|gfe dA|1 B^A=A FD:|2 BAG FG||
"A"EBe BA|Bfd B^A|AEE cA|BAG FG|
EBe BA|Bfd B^A|AEE cA|Bag fg|
eBE BA|Bfd B^A|AEE cA|BAG FG|
EBe BA|Bfd B^A|AEE cA|Bag fg|
M:7/8
"C"eB dc eec|fg fB dgf|g2 fe cce|ga gf aag|
eB/c/ dc eec|fg fB dgf|g2 fe cce|gf ed ABA|

